OFDR/img/documents/worker.svg

<svg width="51" height="64" viewBox="0 0 51 64" fill="none" xmlns="http://www.w3.org/2000/svg">
<g id="worker">
<path id="Path" d="M26.0028 39C19.71 39 14.5343 34.0776 14.056 27.8476C12.2326 27.4965 10.6901 26.19 10.0584 24.3794C9.87038 23.8397 10.1513 23.2473 10.686 23.0575C11.2237 22.8713 11.8077 23.1518 11.9964 23.6909C12.4512 24.995 13.677 25.8704 15.0473 25.8704C15.6137 25.8704 16.0738 26.3341 16.0738 26.9064C16.0738 32.4319 20.5286 36.9273 26.0028 36.9273C31.4782 36.9273 35.9323 32.4319 35.9323 26.9064C35.9323 26.3341 36.3924 25.8704 36.9595 25.8704C38.3227 25.8704 39.5467 24.9998 40.0051 23.7039C40.1966 23.1654 40.7854 22.8855 41.3184 23.0777C41.852 23.2698 42.1305 23.8635 41.9401 24.4025C41.3031 26.2001 39.7647 27.4977 37.9502 27.8476C37.473 34.0788 32.2967 39 26.0028 39Z" fill="#86ADEF"/>
<path id="Path_2" d="M39.9855 19H11.0145C10.4544 19 10 18.5446 10 17.9827C10 10.9664 14.488 4.96049 21.1675 3.03887C21.7067 2.8863 22.2679 3.19609 22.4223 3.73648C22.5772 4.27628 22.265 4.83937 21.727 4.99485C16.2518 6.57116 12.4724 11.3094 12.0655 16.9648H38.935C38.5294 11.3624 34.797 6.63813 29.3914 5.02921C28.8546 4.86965 28.5487 4.30248 28.7077 3.76443C28.8673 3.22579 29.4309 2.91542 29.9689 3.0773C36.5671 5.04202 41 11.0317 41 17.9827C41 18.5452 40.5462 19 39.9855 19Z" fill="#86ADEF"/>
<path id="Shape" fill-rule="evenodd" clip-rule="evenodd" d="M22.0002 19H28.9998C29.552 19 30 18.5426 30 17.9768V1.36526C30 0.884988 29.6727 0.468557 29.2138 0.36606C28.2068 0.139982 26.7837 0 25.4997 0C24.2157 0 22.7932 0.139982 21.7862 0.36606C21.3273 0.467972 21 0.884988 21 1.36526V17.9768C21 18.542 21.448 19 22.0002 19ZM27.9996 16.953H22.9998V2.2233C24.5287 2.00133 26.4713 2.00133 27.9996 2.2233V16.953Z" fill="#86ADEF"/>
<path id="Path_3" d="M39.9998 15H34.9997C34.4481 15 34 14.5525 34 13.9997C34 13.4475 34.4481 13 34.9997 13H39.9998C40.5519 13 41 13.4475 41 13.9997C41 14.5525 40.5519 15 39.9998 15Z" fill="#86ADEF"/>
<path id="Path_4" d="M15.9998 15H11.9996C11.448 15 11 14.5525 11 13.9997C11 13.4475 11.448 13 11.9996 13H15.9998C16.552 13 17 13.4475 17 13.9997C17 14.5525 16.552 15 15.9998 15Z" fill="#86ADEF"/>
<path id="Shape_2" fill-rule="evenodd" clip-rule="evenodd" d="M8.02723 24H43.9728C44.5399 24 45 23.5531 45 23.0003V18.0002C45 17.4475 44.5399 17 43.9728 17H8.02723C7.46014 17 7 17.4475 7 18.0002V23.0003C7 23.5525 7.46014 24 8.02723 24ZM42.9455 22.0001H9.05447V18.9999H42.9455V22.0001Z" fill="#86ADEF"/>
<path id="Path_5" d="M26.6555 44C23.0343 44 19.3268 42.4102 17.2081 39.9927C16.5696 40.1037 15.9324 40.2503 15.3062 40.4276C14.7704 40.5808 14.205 40.2952 14.0433 39.7892C13.8821 39.2826 14.1853 38.7497 14.7211 38.5976C15.6309 38.3383 16.5627 38.1414 17.4904 38.0095C17.865 37.9597 18.2437 38.1074 18.4657 38.4007C20.1055 40.5715 23.4745 42.088 26.6561 42.088C29.6579 42.088 32.3948 40.7449 34.1662 38.4056C34.3877 38.1124 34.7652 37.9619 35.1427 38.0161C35.853 38.1173 36.5622 38.2584 37.251 38.4346C37.7914 38.5719 38.1103 39.0977 37.9648 39.6075C37.8181 40.1169 37.2626 40.4216 36.7216 40.2793C36.2972 40.171 35.8646 40.0775 35.428 40.0003C33.2698 42.5502 30.1073 44 26.6555 44Z" fill="#86ADEF"/>
<path id="Path_6" d="M50.0004 60H40.0002C39.448 60 39 59.5392 39 58.9706C39 58.4015 39.448 57.9407 40.0002 57.9407H49.0002V56.6662C49.0002 50.5938 46.0288 45.0759 41.0507 41.9065C40.5815 41.6078 40.4356 40.9726 40.7263 40.4883C41.0164 40.0051 41.6338 39.8543 42.103 40.1548C47.6744 43.703 51 49.875 51 56.6668V58.9712C51 59.5398 50.552 60 50.0004 60Z" fill="#86ADEF"/>
<path id="Path_7" d="M11.0112 60H0.988781C0.442915 60 0 59.548 0 58.9901V56.7294C0 50.6199 3.13095 44.8053 8.37409 41.1739C8.82719 40.8612 9.4415 40.9815 9.74696 41.4439C10.053 41.9058 9.93533 42.533 9.48336 42.8468C4.78326 46.1019 1.977 51.291 1.977 56.73V57.9803H11.0112C11.5571 57.9803 12 58.4323 12 58.9907C12 59.5485 11.5571 60 11.0112 60Z" fill="#86ADEF"/>
<path id="Shape_3" fill-rule="evenodd" clip-rule="evenodd" d="M11.6437 64H38.3561C38.8795 64 39.319 63.612 39.3759 63.0993L41.9939 39.3328C42.0268 39.0384 41.9253 38.7451 41.7182 38.5297L38.6143 35.3143C38.372 35.0631 38.0176 34.9529 37.6732 35.0187C37.3288 35.0857 37.043 35.3201 36.9151 35.6423L32.0704 47.8555H17.9294L13.0847 35.6423C12.9568 35.3207 12.6711 35.0862 12.3267 35.0187C11.9828 34.9529 11.6284 35.0631 11.3855 35.3143L8.28168 38.5297C8.07456 38.7451 7.97364 39.0384 8.00591 39.3328L10.6245 63.0993C10.6809 63.6114 11.1203 64 11.6437 64ZM37.4361 61.9821H12.5637L10.0965 39.5805L11.7616 37.8559L16.2736 49.2313C16.4274 49.6182 16.8064 49.8734 17.2289 49.8734H32.771C33.1934 49.8734 33.5725 49.6188 33.7262 49.2313L38.2382 37.8559L39.9034 39.5805L37.4361 61.9821Z" fill="#86ADEF"/>
</g>
</svg>

<svg width="51" height="64" fill="none" xmlns="http://www.w3.org/2000/svg"><g fill="#86ADEF"><path d="M26.003 39c-6.293 0-11.469-4.922-11.947-11.152a5.31 5.31 0 01-3.998-3.469 1.04 1.04 0 01.628-1.322 1.028 1.028 0 011.31.634 3.24 3.24 0 003.051 2.18 1.03 1.03 0 011.027 1.035c0 5.526 4.455 10.021 9.929 10.021 5.475 0 9.93-4.495 9.93-10.02 0-.573.46-1.037 1.026-1.037 1.364 0 2.588-.87 3.046-2.166.192-.539.78-.819 1.313-.626.534.192.813.785.622 1.325a5.315 5.315 0 01-3.99 3.445C37.473 34.078 32.297 39 26.003 39zm13.983-20H11.015c-.56 0-1.015-.455-1.015-1.017 0-7.017 4.488-13.023 11.168-14.944.539-.153 1.1.157 1.254.697a1.018 1.018 0 01-.695 1.259c-5.475 1.576-9.255 6.314-9.662 11.97h26.87c-.406-5.603-4.138-10.327-9.544-11.936a1.018 1.018 0 01.578-1.952C36.567 5.042 41 11.032 41 17.983c0 .562-.454 1.017-1.014 1.017z"/><path fill-rule="evenodd" clip-rule="evenodd" d="M22 19h7c.552 0 1-.457 1-1.023V1.365c0-.48-.327-.896-.786-.999C28.207.14 26.784 0 25.5 0c-1.284 0-2.707.14-3.714.366a1.018 1.018 0 00-.786 1v16.61c0 .566.448 1.024 1 1.024zm6-2.047h-5V2.223a18.853 18.853 0 015 0v14.73z"/><path d="M40 15h-5a1 1 0 010-2h5a1 1 0 110 2zm-24 0h-4a1 1 0 010-2h4a1 1 0 110 2z"/><path fill-rule="evenodd" clip-rule="evenodd" d="M8.027 24h35.946C44.54 24 45 23.553 45 23v-5c0-.552-.46-1-1.027-1H8.027C7.46 17 7 17.448 7 18v5c0 .552.46 1 1.027 1zm34.919-2H9.054v-3h33.892v3z"/><path d="M26.655 44c-3.62 0-7.328-1.59-9.447-4.007-.638.11-1.276.257-1.902.435-.536.153-1.101-.133-1.263-.639-.16-.506.142-1.04.678-1.191a20.84 20.84 0 012.77-.588c.374-.05.753.097.975.39 1.64 2.172 5.008 3.688 8.19 3.688 3.002 0 5.739-1.343 7.51-3.682a1.04 1.04 0 01.977-.39c.71.101 1.42.242 2.108.419.54.137.86.663.714 1.172-.147.51-.702.815-1.243.672A17.71 17.71 0 0035.428 40c-2.158 2.55-5.32 4-8.772 4zM50 60H40c-.552 0-1-.46-1-1.03 0-.569.448-1.03 1-1.03h9v-1.274c0-6.072-2.971-11.59-7.95-14.76a1.049 1.049 0 01-.324-1.418.983.983 0 011.377-.333C47.674 43.703 51 49.875 51 56.667v2.304C51 59.54 50.552 60 50 60zm-38.989 0H.99A1 1 0 010 58.99v-2.26c0-6.11 3.131-11.925 8.374-15.556a.975.975 0 011.373.27 1.024 1.024 0 01-.264 1.403c-4.7 3.255-7.506 8.444-7.506 13.883v1.25h9.034A1 1 0 0112 58.99a1 1 0 01-.989 1.01z"/><path fill-rule="evenodd" clip-rule="evenodd" d="M11.644 64h26.712a1.02 1.02 0 001.02-.9l2.618-23.767a.999.999 0 00-.276-.803l-3.104-3.216a1.036 1.036 0 00-.94-.295 1.023 1.023 0 00-.759.623L32.07 47.855H17.93l-4.845-12.213a1.025 1.025 0 00-.758-.623 1.037 1.037 0 00-.941.295L8.282 38.53a1 1 0 00-.276.803l2.618 23.766a1.02 1.02 0 001.02.901zm25.792-2.018H12.564l-2.467-22.401 1.665-1.725 4.512 11.375c.153.387.532.642.955.642H32.77c.422 0 .801-.254.955-.642l4.512-11.375 1.665 1.724-2.467 22.402z"/></g></svg>
